.local/share/icons/Gruvbox-Plus-Dark/panel/16/state-error.svg

<svg width="16" height="16" version="1.1" xmlns="http://www.w3.org/2000/svg">
  <defs>
    <style id="current-color-scheme" type="text/css">.ColorScheme-Text { color:#ebdbb2; } .ColorScheme-Highlight { color:#458588; } .ColorScheme-NeutralText { color:#fe8019; } .ColorScheme-PositiveText { color:#689d6a; } .ColorScheme-NegativeText { color:#fb4934; }</style>
  </defs>
  <path class="ColorScheme-NegativeText" d="m8 1c-3.866 0-7 3.134-7 7s3.134 7 7 7 7-3.134 7-7-3.134-7-7-7zm-1 3h2v5h-2zm0 6h2v2h-2z" fill="currentColor"/>
</svg>

<svg xmlns="http://www.w3.org/2000/svg" width="16" height="16" version="1.1">
    <defs>
        <style id="current-color-scheme" type="text/css">
            .ColorScheme-Text {
                color: #ebdbb2;
            }

            .ColorScheme-Highlight {
                color: #fb4934;
            }
        </style>
    </defs>
    <path style="fill:currentColor" class="ColorScheme-Highlight"
        d="M 8,1 C 4.134,1 1,4.134 1,8 1,11.866 4.134,15 8,15 11.866,15 15,11.866 15,8 15,4.134 11.866,1 8,1 Z M 7,4 H 9 V 9 H 7 Z M 7,10 H 9 V 12 H 7 Z" />
</svg>
